X:1
T:[ID 7-82]
T:[ID 7-82]
T:Bezeichnung standardisiert: Menuet [mit Trio] Menuet Con Trio 17.
T:Urheber unbekannt Datum in der hier transkribierten schriftlichen Quelle: 1792
C:Urheber unbekannt
C:Datum in der hier transkribierten schriftlichen Quelle: 1792
L:1/8
M:3/4
K:G
V:1 treble 
V:1
 (3def | .g2 .d2 .B2 | .d2 .B2 .G2 | A2 ABcA | B4 (3def | .g2 .d2 .B2 | .d2 .B2 .G2 | A2 ABcA | %8
 G4 :: dc | B2 BcdB | c4 cB | A2 ABcA | B4 (3def | g2 d2 B2 | d2 B2 G2 | A2 ABcA | G4 :| %18
[M:3/4]"^Trio" !fermata!D2 | GFGABG | c4 B2 | A2 AGFG | AGFE D2 | GFGABG | c4 B2 | A2 AcBA | G4 :: %27
 d2 | gfedcB | A4 B2 | cBAGFG | A4 D2 | GFGABG | c4 B2 | A2 AcBA | G4 :| %36

